;Generated with Cura_SteamEngine 15.01
; Default start code
G28 ; Home extruder
G1 Z15 F100
M107 ; Turn off fan
G90 ; Absolute positioning
M82 ; Extruder in absolute mode
M190 S50
; Activate all used extruder
M104 T0 S210
G92 E0 ; Reset extruder position
; Wait for all used extruders to reach temperature
M109 T0 S210
;Layer count: 147
;LAYER:0
M107
G0 F9000 X65.802 Y59.179 Z0.300
;TYPE:SKIRT
G1 F1800 X73.677 Y51.304 E0.55562
G1 X126.327 Y51.304 E3.18234
G1 X134.202 Y59.179 E3.73797
G1 X134.202 Y90.829 E5.31699
G1 X127.327 Y97.704 E5.80206
G1 X72.677 Y97.704 E8.52856
G1 X65.802 Y90.829 E9.01363
G1 X65.802 Y59.179 E10.59265
G0 F9000 X72.672 Y102.295
G1 F1800 X127.322 Y102.295 E13.31915
G1 X134.197 Y109.170 E13.80422
G1 X134.197 Y140.820 E15.38325
G1 X126.322 Y148.695 E15.93887
G1 X73.672 Y148.695 E18.56559
G1 X65.797 Y140.820 E19.12121
G1 X65.797 Y109.170 E20.70024
G1 X72.672 Y102.295 E21.18531
G1 F2400 E17.18531
G0 F9000 X74.250 Y93.904
;TYPE:WALL-INNER
G1 F2400 E21.18531
G1 F1800 X69.602 Y89.256 E21.51325
G1 X69.602 Y60.752 E22.93532
G1 X75.250 Y55.104 E23.33381
G1 X124.754 Y55.104 E25.80358
G1 X130.402 Y60.752 E26.20208
G1 X130.402 Y89.256 E27.62415
G1 X125.754 Y93.904 E27.95209
G1 X74.250 Y93.904 E30.52163
G0 F9000 X74.084 Y94.304
;TYPE:WALL-OUTER
G1 F1800 X69.202 Y89.422 E30.86608
G1 X69.202 Y60.586 E32.30472
G1 X75.084 Y54.704 E32.71973
G1 X124.920 Y54.704 E35.20605
G1 X130.802 Y60.586 E35.62106
G1 X130.802 Y89.422 E37.05969
G1 X125.920 Y94.304 E37.40415
G1 X74.084 Y94.304 E39.99025
G0 F9000 X74.813 Y93.763
;TYPE:SKIN
G1 F1800 X69.741 Y88.691 E40.34811
G0 F9000 X69.741 Y88.126
G1 F1800 X75.378 Y93.763 E40.74583
G0 F9000 X75.944 Y93.763
G1 F1800 X69.741 Y87.560 E41.18349
G0 F9000 X69.741 Y86.994
G1 F1800 X76.510 Y93.763 E41.66108
G0 F9000 X77.076 Y93.763
G1 F1800 X69.741 Y86.428 E42.17860
G0 F9000 X69.741 Y85.863
G1 F1800 X77.641 Y93.763 E42.73599
G0 F9000 X78.207 Y93.763
G1 F1800 X69.741 Y85.297 E43.33331
G0 F9000 X69.741 Y84.731
G1 F1800 X78.773 Y93.763 E43.97057
G0 F9000 X79.338 Y93.763
G1 F1800 X69.741 Y84.166 E44.64769
G0 F9000 X69.741 Y83.600
G1 F1800 X79.904 Y93.763 E45.36474
G0 F9000 X80.470 Y93.763
G1 F1800 X69.741 Y83.034 E46.12173
G0 F9000 X69.741 Y82.469
G1 F1800 X81.035 Y93.763 E46.91858
G0 F9000 X81.601 Y93.763
G1 F1800 X69.741 Y81.903 E47.75537
G0 F9000 X69.741 Y81.337
G1 F1800 X82.167 Y93.763 E48.63209
G0 F9000 X82.732 Y93.763
G1 F1800 X69.741 Y80.772 E49.54868
G0 F9000 X69.741 Y80.206
G1 F1800 X83.298 Y93.763 E50.50520
G0 F9000 X83.864 Y93.763
G1 F1800 X69.741 Y79.640 E51.50165
G0 F9000 X69.741 Y79.075
G1 F1800 X84.429 Y93.763 E52.53797
G0 F9000 X84.995 Y93.763
G1 F1800 X69.741 Y78.509 E53.61422
G0 F9000 X69.741 Y77.943
G1 F1800 X85.561 Y93.763 E54.73041
G0 F9000 X86.127 Y93.763
G1 F1800 X69.741 Y77.377 E55.88653
G0 F9000 X69.741 Y76.812
G1 F1800 X86.692 Y93.763 E57.08251
G0 F9000 X87.258 Y93.763
G1 F1800 X69.741 Y76.246 E58.31843
G0 F9000 X69.741 Y75.680
G1 F1800 X87.824 Y93.763 E59.59428
G0 F9000 X88.389 Y93.763
G1 F1800 X69.741 Y75.115 E60.91000
G0 F9000 X69.741 Y74.549
G1 F1800 X88.955 Y93.763 E62.26565
G0 F9000 X89.521 Y93.763
G1 F1800 X69.741 Y73.983 E63.66124
G0 F9000 X69.741 Y73.418
G1 F1800 X90.086 Y93.763 E65.09669
G0 F9000 X90.652 Y93.763
G1 F1800 X69.741 Y72.852 E66.57207
G0 F9000 X69.741 Y72.286
G1 F1800 X91.218 Y93.763 E68.08739
G0 F9000 X91.783 Y93.763
G1 F1800 X69.741 Y71.721 E69.64257
G0 F9000 X69.741 Y71.155
G1 F1800 X92.349 Y93.763 E71.23769
G0 F9000 X92.915 Y93.763
G1 F1800 X69.741 Y70.589 E72.87274
G0 F9000 X69.741 Y70.024
G1 F1800 X93.480 Y93.763 E74.54765
G0 F9000 X94.046 Y93.763
G1 F1800 X69.741 Y69.458 E76.26250
G0 F9000 X69.741 Y68.892
G1 F1800 X94.612 Y93.763 E78.01729
G0 F9000 X95.177 Y93.763
G1 F1800 X69.741 Y68.327 E79.81193
G0 F9000 X69.741 Y67.761
G1 F1800 X95.743 Y93.763 E81.64652
G0 F9000 X96.309 Y93.763
G1 F1800 X69.741 Y67.195 E83.52103
G0 F9000 X69.741 Y66.629
G1 F1800 X96.875 Y93.763 E85.43548
G0 F9000 X97.440 Y93.763
G1 F1800 X69.741 Y66.064 E87.38980
G0 F9000 X69.741 Y65.498
G1 F1800 X98.006 Y93.763 E89.38404
G0 F9000 X98.572 Y93.763
G1 F1800 X69.741 Y64.932 E91.41823
G0 F9000 X69.741 Y64.367
G1 F1800 X99.137 Y93.763 E93.49227
G0 F9000 X99.703 Y93.763
G1 F1800 X69.741 Y63.801 E95.60625
G0 F9000 X69.741 Y63.235
G1 F1800 X100.269 Y93.763 E97.76017
G0 F9000 X100.834 Y93.763
G1 F1800 X69.741 Y62.670 E99.95395
G0 F9000 X69.741 Y62.104
G1 F1800 X101.400 Y93.763 E102.18766
G0 F9000 X101.966 Y93.763
G1 F1800 X69.741 Y61.538 E104.46131
G0 F9000 X69.741 Y60.973
G1 F1800 X102.531 Y93.763 E106.77482
G0 F9000 X103.097 Y93.763
G1 F1800 X69.942 Y60.608 E109.11409
G0 F9000 X70.224 Y60.325
G1 F1800 X103.663 Y93.763 E111.47335
G0 F9000 X104.228 Y93.763
G1 F1800 X70.507 Y60.042 E113.85255
G0 F9000 X70.790 Y59.759
G1 F1800 X104.794 Y93.763 E116.25172
G0 F9000 X105.360 Y93.763
G1 F1800 X71.073 Y59.476 E118.67085
G0 F9000 X71.356 Y59.194
G1 F1800 X105.926 Y93.763 E121.10992
G0 F9000 X106.491 Y93.763
G1 F1800 X71.639 Y58.911 E123.56891
G0 F9000 X71.921 Y58.628
G1 F1800 X107.057 Y93.763 E126.04791
G0 F9000 X107.623 Y93.763
G1 F1800 X72.204 Y58.345 E128.54688
G0 F9000 X72.487 Y58.062
G1 F1800 X108.188 Y93.763 E131.06578
G0 F9000 X108.754 Y93.763
G1 F1800 X72.770 Y57.779 E133.60464
G0 F9000 X73.053 Y57.496
G1 F1800 X109.320 Y93.763 E136.16347
G0 F9000 X109.885 Y93.763
G1 F1800 X73.336 Y57.214 E138.74220
G0 F9000 X73.619 Y56.931
G1 F1800 X110.451 Y93.763 E141.34090
G0 F9000 X111.017 Y93.763
G1 F1800 X73.901 Y56.648 E143.95960
G0 F9000 X74.184 Y56.365
G1 F1800 X111.582 Y93.763 E146.59823
G0 F9000 X112.148 Y93.763
G1 F1800 X74.467 Y56.082 E149.25683
G0 F9000 X74.750 Y55.799
G1 F1800 X112.714 Y93.763 E151.93539
G0 F9000 X113.279 Y93.763
G1 F1800 X75.033 Y55.517 E154.63386
G0 F9000 X75.325 Y55.244
G1 F1800 X113.845 Y93.763 E157.35161
G0 F9000 X114.411 Y93.763
G1 F1800 X75.891 Y55.244 E160.06937
G0 F9000 X76.457 Y55.244
G1 F1800 X114.976 Y93.763 E162.78710
G0 F9000 X115.542 Y93.763
G1 F1800 X77.023 Y55.244 E165.50482
G0 F9000 X77.588 Y55.244
G1 F1800 X116.108 Y93.763 E168.22258
G0 F9000 X116.674 Y93.763
G1 F1800 X78.154 Y55.244 E170.94034
G0 F9000 X78.720 Y55.244
G1 F1800 X117.239 Y93.763 E173.65806
G0 F9000 X117.805 Y93.763
G1 F1800 X79.285 Y55.244 E176.37582
G0 F9000 X79.851 Y55.244
G1 F1800 X118.371 Y93.763 E179.09358
G0 F9000 X118.936 Y93.763
G1 F1800 X80.417 Y55.244 E181.81130
G0 F9000 X80.982 Y55.244
G1 F1800 X119.502 Y93.763 E184.52906
G0 F9000 X120.068 Y93.763
G1 F1800 X81.548 Y55.244 E187.24682
G0 F9000 X82.114 Y55.244
G1 F1800 X120.633 Y93.763 E189.96454
G0 F9000 X121.199 Y93.763
G1 F1800 X82.679 Y55.244 E192.68230
G0 F9000 X83.245 Y55.244
G1 F1800 X121.765 Y93.763 E195.40006
G0 F9000 X122.330 Y93.763
G1 F1800 X83.811 Y55.244 E198.11778
G0 F9000 X84.376 Y55.244
G1 F1800 X122.896 Y93.763 E200.83554
G0 F9000 X123.462 Y93.763
G1 F1800 X84.942 Y55.244 E203.55330
G0 F9000 X85.508 Y55.244
G1 F1800 X124.027 Y93.763 E206.27103
G0 F9000 X124.593 Y93.763
G1 F1800 X86.073 Y55.244 E208.98878
G0 F9000 X86.639 Y55.244
G1 F1800 X125.159 Y93.763 E211.70654
G0 F9000 X125.710 Y93.749
G1 F1800 X87.205 Y55.244 E214.42328
G0 F9000 X87.771 Y55.244
G1 F1800 X125.993 Y93.466 E217.12005
G0 F9000 X126.276 Y93.183
G1 F1800 X88.336 Y55.244 E219.79688
G0 F9000 X88.902 Y55.244
G1 F1800 X126.559 Y92.901 E222.45379
G0 F9000 X126.842 Y92.618
G1 F1800 X89.468 Y55.244 E225.09073
G0 F9000 X90.033 Y55.244
G1 F1800 X127.125 Y92.335 E227.70773
G0 F9000 X127.407 Y92.052
G1 F1800 X90.599 Y55.244 E230.30473
G0 F9000 X91.165 Y55.244
G1 F1800 X127.690 Y91.769 E232.88177
G0 F9000 X127.973 Y91.486
G1 F1800 X91.730 Y55.244 E235.43888
G0 F9000 X92.296 Y55.244
G1 F1800 X128.256 Y91.204 E237.97605
G0 F9000 X128.539 Y90.921
G1 F1800 X92.862 Y55.244 E240.49325
G0 F9000 X93.427 Y55.244
G1 F1800 X128.822 Y90.638 E242.99053
G0 F9000 X129.104 Y90.355
G1 F1800 X93.993 Y55.244 E245.46780
G0 F9000 X94.559 Y55.244
G1 F1800 X129.387 Y90.072 E247.92510
G0 F9000 X129.670 Y89.789
G1 F1800 X95.124 Y55.244 E250.36247
G0 F9000 X95.690 Y55.244
G1 F1800 X129.953 Y89.506 E252.77988
G0 F9000 X130.236 Y89.224
G1 F1800 X96.256 Y55.244 E255.17735
G0 F9000 X96.822 Y55.244
G1 F1800 X130.261 Y88.683 E257.53665
G0 F9000 X130.261 Y88.117
G1 F1800 X97.387 Y55.244 E259.85605
G0 F9000 X97.953 Y55.244
G1 F1800 X130.261 Y87.551 E262.13552
G0 F9000 X130.261 Y86.986
G1 F1800 X98.519 Y55.244 E264.37509
G0 F9000 X99.084 Y55.244
G1 F1800 X130.261 Y86.420 E266.57476
G0 F9000 X130.261 Y85.854
G1 F1800 X99.650 Y55.244 E268.73450
G0 F9000 X100.216 Y55.244
G1 F1800 X130.261 Y85.289 E270.85433
G0 F9000 X130.261 Y84.723
G1 F1800 X100.781 Y55.244 E272.93427
G0 F9000 X101.347 Y55.244
G1 F1800 X130.261 Y84.157 E274.97428
G0 F9000 X130.261 Y83.592
G1 F1800 X101.913 Y55.244 E276.97438
G0 F9000 X102.478 Y55.244
G1 F1800 X130.261 Y83.026 E278.93459
G0 F9000 X130.261 Y82.460
G1 F1800 X103.044 Y55.244 E280.85486
G0 F9000 X103.610 Y55.244
G1 F1800 X130.261 Y81.894 E282.73519
G0 F9000 X130.261 Y81.329
G1 F1800 X104.175 Y55.244 E284.57567
G0 F9000 X104.741 Y55.244
G1 F1800 X130.261 Y80.763 E286.37621
G0 F9000 X130.261 Y80.197
G1 F1800 X105.307 Y55.244 E288.13681
G0 F9000 X105.872 Y55.244
G1 F1800 X130.261 Y79.632 E289.85755
G0 F9000 X130.261 Y79.066
G1 F1800 X106.438 Y55.244 E291.53836
G0 F9000 X107.004 Y55.244
G1 F1800 X130.261 Y78.500 E293.17923
G0 F9000 X130.261 Y77.935
G1 F1800 X107.570 Y55.244 E294.78020
G0 F9000 X108.135 Y55.244
G1 F1800 X130.261 Y77.369 E296.34127
G0 F9000 X130.261 Y76.803
G1 F1800 X108.701 Y55.244 E297.86241
G0 F9000 X109.267 Y55.244
G1 F1800 X130.261 Y76.238 E299.34365
G0 F9000 X130.261 Y75.672
G1 F1800 X109.832 Y55.244 E300.78499
G0 F9000 X110.398 Y55.244
G1 F1800 X130.261 Y75.106 E302.18640
G0 F9000 X130.261 Y74.541
G1 F1800 X110.964 Y55.244 E303.54791
G0 F9000 X111.529 Y55.244
G1 F1800 X130.261 Y73.975 E304.86952
G0 F9000 X130.261 Y73.409
G1 F1800 X112.095 Y55.244 E306.15119
G0 F9000 X112.661 Y55.244
G1 F1800 X130.261 Y72.844 E307.39297
G0 F9000 X130.261 Y72.278
G1 F1800 X113.226 Y55.244 E308.59484
G0 F9000 X113.792 Y55.244
G1 F1800 X130.261 Y71.712 E309.75678
G0 F9000 X130.261 Y71.146
G1 F1800 X114.358 Y55.244 E310.87879
G0 F9000 X114.923 Y55.244
G1 F1800 X130.261 Y70.581 E311.96093
G0 F9000 X130.261 Y70.015
G1 F1800 X115.489 Y55.244 E313.00314
G0 F9000 X116.055 Y55.244
G1 F1800 X130.261 Y69.449 E314.00542
G0 F9000 X130.261 Y68.884
G1 F1800 X116.621 Y55.244 E314.96779
G0 F9000 X117.186 Y55.244
G1 F1800 X130.261 Y68.318 E315.89027
G0 F9000 X130.261 Y67.752
G1 F1800 X117.752 Y55.244 E316.77281
G0 F9000 X118.318 Y55.244
G1 F1800 X130.261 Y67.187 E317.61546
G0 F9000 X130.261 Y66.621
G1 F1800 X118.883 Y55.244 E318.41820
G0 F9000 X119.449 Y55.244
G1 F1800 X130.261 Y66.055 E319.18101
G0 F9000 X130.261 Y65.490
G1 F1800 X120.015 Y55.244 E319.90392
G0 F9000 X120.580 Y55.244
G1 F1800 X130.261 Y64.924 E320.58693
G0 F9000 X130.261 Y64.358
G1 F1800 X121.146 Y55.244 E321.23001
G0 F9000 X121.712 Y55.244
G1 F1800 X130.261 Y63.793 E321.83319
G0 F9000 X130.261 Y63.227
G1 F1800 X122.277 Y55.244 E322.39647
G0 F9000 X122.843 Y55.244
G1 F1800 X130.261 Y62.661 E322.91981
G0 F9000 X130.261 Y62.095
G1 F1800 X123.409 Y55.244 E323.40322
G0 F9000 X123.974 Y55.244
G1 F1800 X130.261 Y61.530 E323.84677
G0 F9000 X130.261 Y60.964
G1 F1800 X124.540 Y55.244 E324.25038
G1 F2400 E320.25038
G0 F9000 X125.749 Y106.095
;TYPE:WALL-INNER
G1 F2400 E324.25038
G1 F1800 X130.397 Y110.743 E324.57832
G1 X130.397 Y139.247 E326.00039
G1 X124.749 Y144.895 E326.39889
G1 X75.245 Y144.895 E328.86865
G1 X69.597 Y139.247 E329.26715
G1 X69.597 Y110.743 E330.68922
G1 X74.245 Y106.095 E331.01716
G1 X125.749 Y106.095 E333.58671
G0 F9000 X125.915 Y105.695
;TYPE:WALL-OUTER
G1 F1800 X130.797 Y110.577 E333.93116
G1 X130.797 Y139.413 E335.36979
G1 X124.915 Y145.295 E335.78480
G1 X75.079 Y145.295 E338.27113
G1 X69.197 Y139.413 E338.68613
G1 X69.197 Y110.577 E340.12477
G1 X74.079 Y105.695 E340.46922
G1 X125.915 Y105.695 E343.05533
G0 F9000 X125.185 Y106.235
;TYPE:SKIN
G1 F1800 X130.256 Y111.306 E343.41311
G0 F9000 X130.256 Y111.872
G1 F1800 X124.619 Y106.235 E343.81084
G0 F9000 X124.054 Y106.235
G1 F1800 X130.256 Y112.437 E344.24842
G0 F9000 X130.256 Y113.003
G1 F1800 X123.488 Y106.235 E344.72594
G0 F9000 X122.922 Y106.235
G1 F1800 X130.256 Y113.569 E345.24339
G0 F9000 X130.256 Y114.134
G1 F1800 X122.357 Y106.235 E345.80071
G0 F9000 X121.791 Y106.235
G1 F1800 X130.256 Y114.700 E346.39796
G0 F9000 X130.256 Y115.266
G1 F1800 X121.225 Y106.235 E347.03515
G0 F9000 X120.659 Y106.235
G1 F1800 X130.256 Y115.831 E347.71223
G0 F9000 X130.256 Y116.397
G1 F1800 X120.094 Y106.235 E348.42922
G0 F9000 X119.528 Y106.235
G1 F1800 X130.256 Y116.963 E349.18613
G0 F9000 X130.256 Y117.528
G1 F1800 X118.962 Y106.235 E349.98295
G0 F9000 X118.397 Y106.235
G1 F1800 X130.256 Y118.094 E350.81967
G0 F9000 X130.256 Y118.660
G1 F1800 X117.831 Y106.235 E351.69632
G0 F9000 X117.265 Y106.235
G1 F1800 X130.256 Y119.225 E352.61287
G0 F9000 X130.256 Y119.791
G1 F1800 X116.700 Y106.235 E353.56932
G0 F9000 X116.134 Y106.235
G1 F1800 X130.256 Y120.357 E354.56570
G0 F9000 X130.256 Y120.923
G1 F1800 X115.568 Y106.235 E355.60202
G0 F9000 X115.003 Y106.235
G1 F1800 X130.256 Y121.488 E356.67820
G0 F9000 X130.256 Y122.054
G1 F1800 X114.437 Y106.235 E357.79432
G0 F9000 X113.871 Y106.235
G1 F1800 X130.256 Y122.620 E358.95037
G0 F9000 X130.256 Y123.185
G1 F1800 X113.306 Y106.235 E360.14628
G0 F9000 X112.740 Y106.235
G1 F1800 X130.256 Y123.751 E361.38213
G0 F9000 X130.256 Y124.317
G1 F1800 X112.174 Y106.235 E362.65791
G0 F9000 X111.609 Y106.235
G1 F1800 X130.256 Y124.882 E363.97356
G0 F9000 X130.256 Y125.448
G1 F1800 X111.043 Y106.235 E365.32914
G0 F9000 X110.477 Y106.235
G1 F1800 X130.256 Y126.014 E366.72465
G0 F9000 X130.256 Y126.579
G1 F1800 X109.911 Y106.235 E368.16007
G0 F9000 X109.346 Y106.235
G1 F1800 X130.256 Y127.145 E369.63538
G0 F9000 X130.256 Y127.711
G1 F1800 X108.780 Y106.235 E371.15063
G0 F9000 X108.214 Y106.235
G1 F1800 X130.256 Y128.276 E372.70578
G0 F9000 X130.256 Y128.842
G1 F1800 X107.649 Y106.235 E374.30082
G0 F9000 X107.083 Y106.235
G1 F1800 X130.256 Y129.408 E375.93580
G0 F9000 X130.256 Y129.974
G1 F1800 X106.517 Y106.235 E377.61072
G0 F9000 X105.952 Y106.235
G1 F1800 X130.256 Y130.539 E379.32550
G0 F9000 X130.256 Y131.105
G1 F1800 X105.386 Y106.235 E381.08021
G0 F9000 X104.820 Y106.235
G1 F1800 X130.256 Y131.671 E382.87486
G0 F9000 X130.256 Y132.236
G1 F1800 X104.255 Y106.235 E384.70937
G0 F9000 X103.689 Y106.235
G1 F1800 X130.256 Y132.802 E386.58381
G0 F9000 X130.256 Y133.368
G1 F1800 X103.123 Y106.235 E388.49819
G0 F9000 X102.558 Y106.235
G1 F1800 X130.256 Y133.933 E390.45244
G0 F9000 X130.256 Y134.499
G1 F1800 X101.992 Y106.235 E392.44661
G0 F9000 X101.426 Y106.235
G1 F1800 X130.256 Y135.065 E394.48073
G0 F9000 X130.256 Y135.630
G1 F1800 X100.861 Y106.235 E396.55470
G0 F9000 X100.295 Y106.235
G1 F1800 X130.256 Y136.196 E398.66861
G0 F9000 X130.256 Y136.762
G1 F1800 X99.729 Y106.235 E400.82246
G0 F9000 X99.163 Y106.235
G1 F1800 X130.256 Y137.327 E403.01620
G0 F9000 X130.256 Y137.893
G1 F1800 X98.598 Y106.235 E405.24984
G0 F9000 X98.032 Y106.235
G1 F1800 X130.256 Y138.459 E407.52342
G0 F9000 X130.256 Y139.024
G1 F1800 X97.466 Y106.235 E409.83690
G0 F9000 X96.901 Y106.235
G1 F1800 X130.056 Y139.389 E412.17613
G0 F9000 X129.773 Y139.672
G1 F1800 X96.335 Y106.235 E414.53532
G0 F9000 X95.769 Y106.235
G1 F1800 X129.490 Y139.955 E416.91449
G0 F9000 X129.207 Y140.238
G1 F1800 X95.204 Y106.235 E419.31358
G0 F9000 X94.638 Y106.235
G1 F1800 X128.924 Y140.521 E421.73264
G0 F9000 X128.641 Y140.804
G1 F1800 X94.072 Y106.235 E424.17167
