;Generated with Cura_SteamEngine 15.01
; Default start code
G28 ; Home extruder
G1 Z15 F100
M107 ; Turn off fan
G90 ; Absolute positioning
M82 ; Extruder in absolute mode
M190 S50
; Activate all used extruder
M104 T0 S210
G92 E0 ; Reset extruder position
; Wait for all used extruders to reach temperature
M109 T0 S210
;Layer count: 202
;LAYER:0
M107
G0 F9000 X60.788 Y69.984 Z0.300
;TYPE:SKIRT
G1 F1800 X71.316 Y67.100 E0.54460
G1 X122.825 Y67.099 E3.11439
G1 X126.633 Y67.100 E3.30437
G1 X127.331 Y67.385 E3.34199
G1 X136.814 Y69.980 E3.83249
G1 X139.651 Y70.356 E3.97526
G1 X139.651 Y129.611 E6.93151
G1 X136.833 Y130.017 E7.07355
G1 X127.308 Y132.626 E7.56626
G1 X126.610 Y132.900 E7.60367
G1 X71.317 Y132.900 E10.36225
G1 X60.786 Y130.016 E10.90699
G1 X58.851 Y128.076 E11.04369
G1 X58.851 Y71.921 E13.84527
G1 X60.788 Y69.984 E13.98194
G1 F2400 E9.98194
G0 F9000 X62.761 Y73.384
;TYPE:WALL-INNER
G1 F2400 E13.98194
G1 F1800 X71.828 Y70.900 E14.45096
G1 X125.887 Y70.900 E17.14798
G1 X126.100 Y70.987 E17.15946
G1 X135.851 Y73.656 E17.66383
G1 X135.851 Y126.346 E20.29254
G1 X126.104 Y129.016 E20.79674
G1 X125.891 Y129.100 E20.80816
G1 X71.828 Y129.100 E23.50538
G1 X62.764 Y126.617 E23.97424
G1 X62.651 Y126.504 E23.98221
G1 X62.651 Y73.494 E26.62689
G1 X62.761 Y73.384 E26.63465
G0 F9000 X62.554 Y73.025
;TYPE:WALL-OUTER
G1 F1800 X71.773 Y70.500 E27.11153
G1 X125.965 Y70.500 E29.81518
G1 X126.229 Y70.608 E29.82941
G1 X136.139 Y73.320 E30.34200
G1 X136.251 Y73.335 E30.34764
G1 X136.251 Y126.666 E33.00834
G1 X136.139 Y126.682 E33.01398
G1 X126.231 Y129.396 E33.52650
G1 X125.967 Y129.500 E33.54066
G1 X71.774 Y129.500 E36.24436
G1 X62.555 Y126.975 E36.72123
G1 X62.251 Y126.670 E36.74272
G1 X62.251 Y73.328 E39.40396
G1 X62.554 Y73.025 E39.42534
G0 F9000 X62.998 Y73.463
;TYPE:SKIN
G1 F1800 X118.493 Y128.958 E43.34081
G0 F9000 X117.927 Y128.958
G1 F1800 X62.791 Y73.821 E47.23099
G0 F9000 X62.791 Y74.387
G1 F1800 X117.362 Y128.958 E51.08127
G0 F9000 X116.796 Y128.958
G1 F1800 X62.791 Y74.953 E54.89161
G0 F9000 X62.791 Y75.519
G1 F1800 X116.230 Y128.958 E58.66202
G0 F9000 X115.664 Y128.958
G1 F1800 X62.791 Y76.084 E62.39253
G0 F9000 X62.791 Y76.650
G1 F1800 X115.099 Y128.958 E66.08315
G0 F9000 X114.533 Y128.958
G1 F1800 X62.791 Y77.216 E69.73382
G0 F9000 X62.791 Y77.781
G1 F1800 X113.967 Y128.958 E73.34460
G0 F9000 X113.402 Y128.958
G1 F1800 X62.791 Y78.347 E76.91548
G0 F9000 X62.791 Y78.913
G1 F1800 X112.836 Y128.958 E80.44643
G0 F9000 X112.270 Y128.958
G1 F1800 X62.791 Y79.478 E83.93747
G0 F9000 X63.442 Y73.341
G1 F1800 X119.059 Y128.958 E87.86155
G0 F9000 X119.624 Y128.958
G1 F1800 X63.886 Y73.220 E91.79417
G0 F9000 X64.330 Y73.098
G1 F1800 X120.190 Y128.958 E95.73539
G0 F9000 X120.756 Y128.958
G1 F1800 X64.774 Y72.976 E99.68523
G0 F9000 X65.218 Y72.855
G1 F1800 X121.321 Y128.958 E103.64360
G0 F9000 X121.887 Y128.958
G1 F1800 X65.662 Y72.733 E107.61057
G0 F9000 X66.106 Y72.612
G1 F1800 X122.453 Y128.958 E111.58612
G0 F9000 X123.018 Y128.958
G1 F1800 X66.551 Y72.491 E115.57018
G0 F9000 X66.995 Y72.369
G1 F1800 X123.584 Y128.958 E119.56284
G0 F9000 X124.150 Y128.958
G1 F1800 X67.439 Y72.247 E123.56410
G0 F9000 X67.883 Y72.126
G1 F1800 X124.715 Y128.958 E127.57391
G0 F9000 X125.281 Y128.958
G1 F1800 X68.327 Y72.004 E131.59232
G0 F9000 X68.771 Y71.883
G1 F1800 X125.847 Y128.958 E135.61930
G0 F9000 X126.276 Y128.822
G1 F1800 X69.215 Y71.761 E139.64527
G0 F9000 X69.659 Y71.639
G1 F1800 X126.720 Y128.700 E143.67123
G0 F9000 X127.164 Y128.578
G1 F1800 X70.103 Y71.518 E147.69715
G0 F9000 X70.548 Y71.396
G1 F1800 X127.608 Y128.457 E151.72308
G0 F9000 X128.052 Y128.335
G1 F1800 X70.992 Y71.274 E155.74901
G0 F9000 X71.436 Y71.153
G1 F1800 X128.496 Y128.214 E159.77493
G0 F9000 X128.940 Y128.092
G1 F1800 X71.888 Y71.040 E163.80026
G0 F9000 X72.454 Y71.040
G1 F1800 X129.384 Y127.970 E167.81698
G0 F9000 X129.829 Y127.849
G1 F1800 X73.020 Y71.040 E171.82516
G0 F9000 X73.585 Y71.040
G1 F1800 X130.273 Y127.727 E175.82477
G0 F9000 X130.717 Y127.605
G1 F1800 X74.151 Y71.040 E179.81577
G0 F9000 X74.717 Y71.040
G1 F1800 X131.161 Y127.484 E183.79820
G0 F9000 X131.605 Y127.362
G1 F1800 X75.282 Y71.040 E187.77206
G0 F9000 X75.848 Y71.040
G1 F1800 X132.049 Y127.241 E191.73734
G0 F9000 X132.493 Y127.119
G1 F1800 X76.414 Y71.040 E195.69402
G0 F9000 X76.979 Y71.040
G1 F1800 X132.937 Y126.997 E199.64212
G0 F9000 X133.381 Y126.876
G1 F1800 X77.545 Y71.040 E203.58165
G0 F9000 X78.111 Y71.040
G1 F1800 X133.825 Y126.754 E207.51258
G0 F9000 X134.269 Y126.632
G1 F1800 X78.676 Y71.040 E211.43493
G0 F9000 X79.242 Y71.040
G1 F1800 X134.713 Y126.511 E215.34871
G0 F9000 X135.157 Y126.389
G1 F1800 X79.808 Y71.040 E219.25388
G0 F9000 X80.373 Y71.040
G1 F1800 X135.601 Y126.268 E223.15051
G0 F9000 X135.710 Y125.810
G1 F1800 X80.939 Y71.040 E227.01487
G0 F9000 X81.505 Y71.040
G1 F1800 X135.710 Y125.244 E230.83929
G0 F9000 X135.710 Y124.679
G1 F1800 X82.071 Y71.040 E234.62381
G0 F9000 X82.636 Y71.040
G1 F1800 X135.710 Y124.113 E238.36843
G0 F9000 X135.710 Y123.547
G1 F1800 X83.202 Y71.040 E242.07312
G0 F9000 X83.768 Y71.040
G1 F1800 X135.710 Y122.982 E245.73791
G0 F9000 X135.710 Y122.416
G1 F1800 X84.333 Y71.040 E249.36280
G0 F9000 X84.899 Y71.040
G1 F1800 X135.710 Y121.850 E252.94775
G0 F9000 X135.710 Y121.285
G1 F1800 X85.465 Y71.040 E256.49281
G0 F9000 X86.030 Y71.040
G1 F1800 X135.710 Y120.719 E259.99796
G0 F9000 X135.710 Y120.153
G1 F1800 X86.596 Y71.040 E263.46319
G0 F9000 X87.162 Y71.040
G1 F1800 X135.710 Y119.588 E266.88851
G0 F9000 X135.710 Y119.022
G1 F1800 X87.727 Y71.040 E270.27393
G0 F9000 X88.293 Y71.040
G1 F1800 X135.710 Y118.456 E273.61942
G0 F9000 X135.710 Y117.890
G1 F1800 X88.859 Y71.040 E276.92498
G0 F9000 X89.424 Y71.040
G1 F1800 X135.710 Y117.325 E280.19067
G0 F9000 X135.710 Y116.759
G1 F1800 X89.990 Y71.040 E283.41643
G0 F9000 X90.556 Y71.040
G1 F1800 X135.710 Y116.193 E286.60225
G0 F9000 X135.710 Y115.628
G1 F1800 X91.122 Y71.040 E289.74818
G0 F9000 X91.687 Y71.040
G1 F1800 X135.710 Y115.062 E292.85420
G0 F9000 X135.710 Y114.496
G1 F1800 X92.253 Y71.040 E295.92029
G0 F9000 X92.819 Y71.040
G1 F1800 X135.710 Y113.931 E298.94649
G0 F9000 X135.710 Y113.365
G1 F1800 X93.384 Y71.040 E301.93278
G0 F9000 X93.950 Y71.040
G1 F1800 X135.710 Y112.799 E304.87914
G0 F9000 X135.710 Y112.234
G1 F1800 X94.516 Y71.040 E307.78560
G0 F9000 X95.081 Y71.040
G1 F1800 X135.710 Y111.668 E310.65216
G0 F9000 X135.710 Y111.102
G1 F1800 X95.647 Y71.040 E313.47878
G0 F9000 X96.213 Y71.040
G1 F1800 X135.710 Y110.537 E316.26551
G0 F9000 X135.710 Y109.971
G1 F1800 X96.778 Y71.040 E319.01234
G0 F9000 X97.344 Y71.040
G1 F1800 X135.710 Y109.405 E321.71923
G0 F9000 X135.710 Y108.839
G1 F1800 X97.910 Y71.040 E324.38619
G0 F9000 X98.475 Y71.040
G1 F1800 X135.710 Y108.274 E327.01328
G0 F9000 X135.710 Y107.708
G1 F1800 X99.041 Y71.040 E329.60044
G0 F9000 X99.607 Y71.040
G1 F1800 X135.710 Y107.142 E332.14767
G0 F9000 X135.710 Y106.577
G1 F1800 X100.172 Y71.040 E334.65503
G0 F9000 X100.738 Y71.040
G1 F1800 X135.710 Y106.011 E337.12246
G0 F9000 X135.710 Y105.445
G1 F1800 X101.304 Y71.040 E339.54995
G0 F9000 X101.870 Y71.040
G1 F1800 X135.710 Y104.880 E341.93755
G0 F9000 X135.710 Y104.314
G1 F1800 X102.435 Y71.040 E344.28524
G0 F9000 X103.001 Y71.040
G1 F1800 X135.710 Y103.748 E346.59301
G0 F9000 X135.710 Y103.183
G1 F1800 X103.567 Y71.040 E348.86087
G0 F9000 X104.132 Y71.040
G1 F1800 X135.710 Y102.617 E351.08883
G0 F9000 X135.710 Y102.051
G1 F1800 X104.698 Y71.040 E353.27686
G0 F9000 X105.264 Y71.040
G1 F1800 X135.710 Y101.486 E355.42499
G0 F9000 X135.710 Y100.920
G1 F1800 X105.829 Y71.040 E357.53322
G0 F9000 X106.395 Y71.040
G1 F1800 X135.710 Y100.354 E359.60152
G0 F9000 X135.710 Y99.789
G1 F1800 X106.961 Y71.040 E361.62991
G0 F9000 X107.526 Y71.040
G1 F1800 X135.710 Y99.223 E363.61841
G0 F9000 X135.710 Y98.657
G1 F1800 X108.092 Y71.040 E365.56698
G0 F9000 X108.658 Y71.040
G1 F1800 X135.710 Y98.091 E367.47561
G0 F9000 X135.710 Y97.526
G1 F1800 X109.223 Y71.040 E369.34437
G0 F9000 X109.789 Y71.040
G1 F1800 X135.710 Y96.960 E371.17320
G0 F9000 X135.710 Y96.394
G1 F1800 X110.355 Y71.040 E372.96210
G0 F9000 X110.921 Y71.040
G1 F1800 X135.710 Y95.829 E374.71110
G0 F9000 X135.710 Y95.263
G1 F1800 X111.486 Y71.040 E376.42020
G0 F9000 X112.052 Y71.040
G1 F1800 X135.710 Y94.697 E378.08936
G0 F9000 X135.710 Y94.132
G1 F1800 X112.618 Y71.040 E379.71863
G0 F9000 X113.183 Y71.040
G1 F1800 X135.710 Y93.566 E381.30799
G0 F9000 X135.710 Y93.000
G1 F1800 X113.749 Y71.040 E382.85742
G0 F9000 X114.315 Y71.040
G1 F1800 X135.710 Y92.435 E384.36696
G0 F9000 X135.710 Y91.869
G1 F1800 X114.880 Y71.040 E385.83659
G0 F9000 X115.446 Y71.040
G1 F1800 X135.710 Y91.303 E387.26629
G0 F9000 X135.710 Y90.738
G1 F1800 X116.012 Y71.040 E388.65609
G0 F9000 X116.577 Y71.040
G1 F1800 X135.710 Y90.172 E390.00599
G0 F9000 X135.710 Y89.606
G1 F1800 X117.143 Y71.040 E391.31596
G0 F9000 X117.709 Y71.040
G1 F1800 X135.710 Y89.041 E392.58603
G0 F9000 X135.710 Y88.475
G1 F1800 X118.274 Y71.040 E393.81619
G0 F9000 X118.840 Y71.040
G1 F1800 X135.710 Y87.909 E395.00643
G0 F9000 X135.710 Y87.343
G1 F1800 X119.406 Y71.040 E396.15673
G0 F9000 X119.971 Y71.040
G1 F1800 X135.710 Y86.778 E397.26717
G0 F9000 X135.710 Y86.212
G1 F1800 X120.537 Y71.040 E398.33767
G0 F9000 X121.103 Y71.040
G1 F1800 X135.710 Y85.646 E399.36823
G0 F9000 X135.710 Y85.081
G1 F1800 X121.669 Y71.040 E400.35890
G0 F9000 X122.234 Y71.040
G1 F1800 X135.710 Y84.515 E401.30967
G0 F9000 X135.710 Y83.949
G1 F1800 X122.800 Y71.040 E402.22051
G0 F9000 X123.366 Y71.040
G1 F1800 X135.710 Y83.384 E403.09144
G0 F9000 X135.710 Y82.818
G1 F1800 X123.931 Y71.040 E403.92248
G0 F9000 X124.497 Y71.040
G1 F1800 X135.710 Y82.252 E404.71358
G0 F9000 X135.710 Y81.687
G1 F1800 X125.063 Y71.040 E405.46479
G0 F9000 X125.628 Y71.040
G1 F1800 X135.710 Y81.121 E406.17609
G0 F9000 X135.710 Y80.555
G1 F1800 X126.357 Y71.203 E406.83596
G0 F9000 X127.136 Y71.416
G1 F1800 X135.710 Y79.990 E407.44090
G0 F9000 X135.710 Y79.424
G1 F1800 X127.915 Y71.629 E407.99088
G0 F9000 X128.694 Y71.842
G1 F1800 X135.710 Y78.858 E408.48590
G0 F9000 X135.710 Y78.292
G1 F1800 X129.473 Y72.056 E408.92592
G0 F9000 X130.251 Y72.269
G1 F1800 X135.710 Y77.727 E409.31104
G0 F9000 X135.710 Y77.161
G1 F1800 X131.031 Y72.482 E409.64117
G0 F9000 X131.809 Y72.695
G1 F1800 X135.710 Y76.595 E409.91637
G0 F9000 X135.710 Y76.030
G1 F1800 X132.588 Y72.909 E410.13661
G0 F9000 X133.368 Y73.122
G1 F1800 X135.710 Y75.464 E410.30185
G0 F9000 X135.710 Y74.898
G1 F1800 X134.146 Y73.335 E410.41217
G0 F9000 X134.925 Y73.549
G1 F1800 X135.710 Y74.333 E410.46752
G0 F9000 X111.705 Y128.958
G1 F1800 X62.791 Y80.044 E413.91866
G0 F9000 X62.791 Y80.610
G1 F1800 X111.139 Y128.958 E417.32988
G0 F9000 X110.573 Y128.958
G1 F1800 X62.791 Y81.175 E420.70119
G0 F9000 X62.791 Y81.741
G1 F1800 X110.008 Y128.958 E424.03260
G0 F9000 X109.442 Y128.958
G1 F1800 X62.791 Y82.307 E427.32408
G0 F9000 X62.791 Y82.872
G1 F1800 X108.876 Y128.958 E430.57566
G0 F9000 X108.311 Y128.958
G1 F1800 X62.791 Y83.438 E433.78735
G0 F9000 X62.791 Y84.004
G1 F1800 X107.745 Y128.958 E436.95909
G0 F9000 X107.179 Y128.958
G1 F1800 X62.791 Y84.569 E440.09094
G0 F9000 X62.791 Y85.135
G1 F1800 X106.614 Y128.958 E443.18289
G0 F9000 X106.048 Y128.958
G1 F1800 X62.791 Y85.701 E446.23491
G0 F9000 X62.791 Y86.267
G1 F1800 X105.482 Y128.958 E449.24699
G0 F9000 X104.916 Y128.958
G1 F1800 X62.791 Y86.832 E452.21917
G0 F9000 X62.791 Y87.398
G1 F1800 X104.351 Y128.958 E455.15145
G0 F9000 X103.785 Y128.958
G1 F1800 X62.791 Y87.964 E458.04380
G0 F9000 X62.791 Y88.529
G1 F1800 X103.219 Y128.958 E460.89625
G0 F9000 X102.654 Y128.958
G1 F1800 X62.791 Y89.095 E463.70880
G0 F9000 X62.791 Y89.661
G1 F1800 X102.088 Y128.958 E466.48141
G0 F9000 X101.522 Y128.958
G1 F1800 X62.791 Y90.226 E469.21413
G0 F9000 X62.791 Y90.792
G1 F1800 X100.957 Y128.958 E471.90695
G0 F9000 X100.391 Y128.958
G1 F1800 X62.791 Y91.358 E474.55983
G0 F9000 X62.791 Y91.923
G1 F1800 X99.825 Y128.958 E477.17282
G0 F9000 X99.260 Y128.958
G1 F1800 X62.791 Y92.489 E479.74590
G0 F9000 X62.791 Y93.055
G1 F1800 X98.694 Y128.958 E482.27905
G0 F9000 X98.128 Y128.958
G1 F1800 X62.791 Y93.620 E484.77230
G0 F9000 X62.791 Y94.186
G1 F1800 X97.563 Y128.958 E487.22565
G0 F9000 X96.997 Y128.958
G1 F1800 X62.791 Y94.752 E489.63907
G0 F9000 X62.791 Y95.317
G1 F1800 X96.431 Y128.958 E492.01259
G0 F9000 X95.866 Y128.958
G1 F1800 X62.791 Y95.883 E494.34621
G0 F9000 X62.791 Y96.449
G1 F1800 X95.300 Y128.958 E496.63990
G0 F9000 X94.734 Y128.958
G1 F1800 X62.791 Y97.015 E498.89365
G0 F9000 X62.791 Y97.580
G1 F1800 X94.168 Y128.958 E501.10750
G0 F9000 X93.603 Y128.958
G1 F1800 X62.791 Y98.146 E503.28145
G0 F9000 X62.791 Y98.712
G1 F1800 X93.037 Y128.958 E505.41547
G0 F9000 X92.471 Y128.958
G1 F1800 X62.791 Y99.277 E507.50959
G0 F9000 X62.791 Y99.843
G1 F1800 X91.906 Y128.958 E509.56381
G0 F9000 X91.340 Y128.958
G1 F1800 X62.791 Y100.409 E511.57810
G0 F9000 X62.791 Y100.974
G1 F1800 X90.774 Y128.958 E513.55249
G0 F9000 X90.209 Y128.958
G1 F1800 X62.791 Y101.540 E515.48697
G0 F9000 X62.791 Y102.106
G1 F1800 X89.643 Y128.958 E517.38153
G0 F9000 X89.077 Y128.958
G1 F1800 X62.791 Y102.671 E519.23618
G0 F9000 X62.791 Y103.237
G1 F1800 X88.512 Y128.958 E521.05094
G0 F9000 X87.946 Y128.958
G1 F1800 X62.791 Y103.803 E522.82576
G0 F9000 X62.791 Y104.368
G1 F1800 X87.380 Y128.958 E524.56068
G0 F9000 X86.815 Y128.958
G1 F1800 X62.791 Y104.934 E526.25570
G0 F9000 X62.791 Y105.500
G1 F1800 X86.249 Y128.958 E527.91079
G0 F9000 X85.683 Y128.958
G1 F1800 X62.791 Y106.066 E529.52595
G0 F9000 X62.791 Y106.631
G1 F1800 X85.117 Y128.958 E531.10120
G0 F9000 X84.552 Y128.958
G1 F1800 X62.791 Y107.197 E532.63656
G0 F9000 X62.791 Y107.763
G1 F1800 X83.986 Y128.958 E534.13198
G0 F9000 X83.420 Y128.958
G1 F1800 X62.791 Y108.328 E535.58750
G0 F9000 X62.791 Y108.894
G1 F1800 X82.855 Y128.958 E537.00313
G0 F9000 X82.289 Y128.958
G1 F1800 X62.791 Y109.460 E538.37881
G0 F9000 X62.791 Y110.025
G1 F1800 X81.723 Y128.958 E539.71460
G0 F9000 X81.158 Y128.958
G1 F1800 X62.791 Y110.591 E541.01050
G0 F9000 X62.791 Y111.157
G1 F1800 X80.592 Y128.958 E542.26645
G0 F9000 X80.026 Y128.958
G1 F1800 X62.791 Y111.722 E543.48251
G0 F9000 X62.791 Y112.288
G1 F1800 X79.461 Y128.958 E544.65867
G0 F9000 X78.895 Y128.958
G1 F1800 X62.791 Y112.854 E545.79489
G0 F9000 X62.791 Y113.419
G1 F1800 X78.329 Y128.958 E546.89122
G0 F9000 X77.764 Y128.958
G1 F1800 X62.791 Y113.985 E547.94764
G0 F9000 X62.791 Y114.551
G1 F1800 X77.198 Y128.958 E548.96414
G0 F9000 X76.632 Y128.958
G1 F1800 X62.791 Y115.116 E549.94073
G0 F9000 X62.791 Y115.682
G1 F1800 X76.067 Y128.958 E550.87742
G0 F9000 X75.501 Y128.958
G1 F1800 X62.791 Y116.248 E551.77418
G0 F9000 X62.791 Y116.814
G1 F1800 X74.935 Y128.958 E552.63101
G0 F9000 X74.369 Y128.958
G1 F1800 X62.791 Y117.379 E553.44793
G0 F9000 X62.791 Y117.945
G1 F1800 X73.804 Y128.958 E554.22496
G0 F9000 X73.238 Y128.958
G1 F1800 X62.791 Y118.511 E554.96205
G0 F9000 X62.791 Y119.076
G1 F1800 X72.672 Y128.958 E555.65924
G0 F9000 X72.107 Y128.958
G1 F1800 X62.791 Y119.642 E556.31654
G0 F9000 X62.791 Y120.208
G1 F1800 X71.426 Y128.843 E556.92578
G0 F9000 X70.647 Y128.629
G1 F1800 X62.791 Y120.773 E557.48007
G0 F9000 X62.791 Y121.339
G1 F1800 X69.867 Y128.416 E557.97935
G0 F9000 X69.089 Y128.203
G1 F1800 X62.791 Y121.905 E558.42371
G0 F9000 X62.791 Y122.470
G1 F1800 X68.310 Y127.989 E558.81310
G0 F9000 X67.531 Y127.777
G1 F1800 X62.791 Y123.036 E559.14757
G0 F9000 X62.791 Y123.602
G1 F1800 X66.752 Y127.563 E559.42704
G0 F9000 X65.973 Y127.349
G1 F1800 X62.791 Y124.167 E559.65155
