;Generated with Cura_SteamEngine 15.01
; Default start code
G28 ; Home extruder
G1 Z15 F100
M107 ; Turn off fan
G90 ; Absolute positioning
M82 ; Extruder in absolute mode
M190 S50
; Activate all used extruder
M104 T0 S210
G92 E0 ; Reset extruder position
; Wait for all used extruders to reach temperature
M109 T0 S210
;Layer count: 192
;LAYER:0
M107
G0 F9000 X83.368 Y83.700 Z0.300
G0 X82.111 Y84.950
;TYPE:SKIRT
G1 F1800 X83.368 Y83.700 E0.08844
G1 X97.742 Y83.700 E0.80556
G1 X100.000 Y85.954 E0.96474
G1 X101.003 Y84.951 E1.03550
G1 X102.260 Y83.700 E1.12398
G1 X116.634 Y83.700 E1.84110
G1 X119.692 Y86.752 E2.05665
G1 X119.692 Y113.243 E3.37829
G1 X117.889 Y115.048 E3.50557
G1 X116.631 Y116.300 E3.59412
G1 X102.255 Y116.300 E4.31134
G1 X99.999 Y114.044 E4.47051
G1 X98.997 Y115.048 E4.54128
G1 X97.739 Y116.300 E4.62983
G1 X83.364 Y116.300 E5.34700
G1 X80.307 Y113.246 E5.56258
G1 X80.307 Y86.752 E6.88437
G1 X82.111 Y84.950 E7.01158
G0 F9000 X82.394 Y85.234
G1 F1800 X83.533 Y84.100 E7.09177
G1 X97.577 Y84.100 E7.79243
G1 X100.001 Y86.519 E7.96328
G1 X101.285 Y85.234 E8.05391
G1 X102.425 Y84.100 E8.13413
G1 X116.469 Y84.100 E8.83479
G1 X119.292 Y86.918 E9.03379
G1 X119.292 Y113.077 E10.33887
G1 X117.607 Y114.765 E10.45786
G1 X116.466 Y115.900 E10.53815
G1 X102.421 Y115.900 E11.23886
G1 X99.999 Y113.478 E11.40974
G1 X98.715 Y114.765 E11.50044
G1 X97.574 Y115.900 E11.58073
G1 X83.530 Y115.900 E12.28139
G1 X80.707 Y113.080 E12.48047
G1 X80.707 Y86.918 E13.78569
G1 X82.394 Y85.234 E13.90461
G1 F2400 E9.90461
G0 F9000 X85.077 Y87.925
;TYPE:WALL-INNER
G1 F2400 E13.90461
G1 F1800 X85.101 Y87.900 E13.90634
G1 X96.004 Y87.900 E14.45030
G1 X96.600 Y88.494 E14.49228
G1 X96.600 Y111.504 E15.64025
G1 X96.029 Y112.076 E15.68057
G1 X96.006 Y112.100 E15.68223
G1 X85.102 Y112.100 E16.22623
G1 X84.507 Y111.506 E16.26818
G1 X84.507 Y88.494 E17.41625
G1 X85.077 Y87.925 E17.45643
G0 F9000 X88.722 Y96.190
G1 F1800 X88.174 Y96.506 E17.48799
G1 X87.681 Y96.899 E17.51945
G1 X87.251 Y97.361 E17.55094
G1 X86.894 Y97.884 E17.58253
G1 X86.620 Y98.453 E17.61403
G1 X86.433 Y99.057 E17.64558
G1 X86.342 Y99.670 E17.67650
G1 X86.327 Y100.020 E17.69397
G1 X86.373 Y100.628 E17.72439
G1 X86.513 Y101.244 E17.75591
G1 X86.744 Y101.832 E17.78743
G1 X87.054 Y102.370 E17.81841
G1 X87.255 Y102.643 E17.83532
G1 X87.678 Y103.097 E17.86628
G1 X88.171 Y103.491 E17.89776
G1 X88.711 Y103.802 E17.92885
G1 X89.032 Y103.941 E17.94630
G1 X89.612 Y104.120 E17.97659
G1 X90.225 Y104.212 E18.00751
G1 X90.563 Y104.226 E18.02439
G1 X91.171 Y104.181 E18.05481
G1 X91.785 Y104.043 E18.08620
G1 X92.374 Y103.814 E18.11773
G1 X92.922 Y103.500 E18.14924
G1 X93.418 Y103.107 E18.18081
G1 X93.841 Y102.654 E18.21173
G1 X94.219 Y102.102 E18.24511
G1 X94.478 Y101.566 E18.27481
G1 X94.590 Y101.246 E18.29173
G1 X94.676 Y100.929 E18.30811
G1 X94.764 Y100.338 E18.33792
G1 X94.779 Y99.990 E18.35530
G1 X94.736 Y99.393 E18.38516
G1 X94.671 Y99.048 E18.40268
G1 X94.496 Y98.477 E18.43247
G1 X94.208 Y97.877 E18.46568
G1 X93.877 Y97.390 E18.49505
G1 X93.644 Y97.117 E18.51296
G1 X93.206 Y96.709 E18.54282
G1 X92.686 Y96.351 E18.57432
G1 X92.120 Y96.075 E18.60574
G1 X91.529 Y95.889 E18.63665
G1 X91.174 Y95.819 E18.65470
G1 X90.604 Y95.777 E18.68321
G1 X90.516 Y95.774 E18.68761
G1 X89.924 Y95.819 E18.71723
G1 X89.309 Y95.960 E18.74871
G1 X88.722 Y96.190 E18.78016
G0 F9000 X88.896 Y96.551
;TYPE:WALL-OUTER
G1 F1800 X88.400 Y96.837 E18.80872
G1 X87.954 Y97.193 E18.83719
G1 X87.564 Y97.612 E18.86575
G1 X87.241 Y98.085 E18.89433
G1 X86.993 Y98.600 E18.92284
G1 X86.824 Y99.146 E18.95136
G1 X86.741 Y99.708 E18.97970
G1 X86.728 Y100.013 E18.99493
G1 X86.770 Y100.568 E19.02270
G1 X86.896 Y101.126 E19.05124
G1 X87.105 Y101.658 E19.07976
G1 X87.389 Y102.151 E19.10814
G1 X87.564 Y102.387 E19.12280
G1 X87.951 Y102.803 E19.15115
G1 X88.397 Y103.160 E19.17965
G1 X88.890 Y103.444 E19.20803
G1 X89.171 Y103.565 E19.22330
G1 X89.701 Y103.729 E19.25097
G1 X90.263 Y103.813 E19.27932
G1 X90.556 Y103.825 E19.29395
G1 X91.112 Y103.784 E19.32177
G1 X91.668 Y103.659 E19.35020
G1 X92.201 Y103.452 E19.37873
G1 X92.697 Y103.168 E19.40724
G1 X93.146 Y102.812 E19.43583
G1 X93.534 Y102.397 E19.46417
G1 X93.714 Y102.155 E19.47922
G1 X93.868 Y101.909 E19.49370
G1 X94.108 Y101.412 E19.52123
G1 X94.208 Y101.127 E19.53630
G1 X94.284 Y100.847 E19.55078
G1 X94.365 Y100.300 E19.57837
G1 X94.378 Y99.996 E19.59355
G1 X94.339 Y99.444 E19.62115
G1 X94.282 Y99.144 E19.63639
G1 X94.120 Y98.616 E19.66394
G1 X93.865 Y98.083 E19.69342
G1 X93.559 Y97.633 E19.72057
G1 X93.355 Y97.394 E19.73625
G1 X92.955 Y97.022 E19.76350
G1 X92.484 Y96.698 E19.79202
G1 X91.971 Y96.448 E19.82049
G1 X91.430 Y96.277 E19.84880
G1 X91.121 Y96.216 E19.86451
G1 X90.585 Y96.176 E19.89133
G1 X90.527 Y96.175 E19.89422
G1 X89.984 Y96.216 E19.92139
G1 X89.427 Y96.343 E19.94989
G1 X88.896 Y96.551 E19.97834
G0 F9000 X88.788 Y96.271
G0 X84.384 Y88.474
G0 X84.107 Y88.328
G1 F1800 X84.937 Y87.500 E20.03683
G1 X96.170 Y87.500 E20.59725
G1 X97.000 Y88.328 E20.65574
G1 X97.000 Y111.670 E21.82028
G1 X96.170 Y112.500 E21.87884
G1 X84.936 Y112.500 E22.43930
G1 X84.107 Y111.672 E22.49776
G1 X84.107 Y88.328 E23.66240
G0 F9000 X84.760 Y88.437
;TYPE:SKIN
G1 F1800 X92.356 Y96.033 E24.19834
G0 F9000 X91.496 Y95.738
G1 F1800 X84.647 Y88.889 E24.68157
G0 F9000 X84.647 Y89.455
G1 F1800 X90.844 Y95.653 E25.11884
G0 F9000 X90.277 Y95.651
G1 F1800 X84.647 Y90.021 E25.51606
G0 F9000 X84.647 Y90.586
G1 F1800 X89.769 Y95.709 E25.87748
G0 F9000 X89.309 Y95.814
G1 F1800 X84.647 Y91.152 E26.20641
G0 F9000 X84.647 Y91.718
G1 F1800 X88.898 Y95.969 E26.50634
G0 F9000 X88.511 Y96.148
G1 F1800 X84.647 Y92.283 E26.77901
G0 F9000 X84.647 Y92.849
G1 F1800 X88.152 Y96.354 E27.02630
G0 F9000 X87.831 Y96.599
G1 F1800 X84.647 Y93.415 E27.25095
G0 F9000 X84.647 Y93.980
G1 F1800 X87.527 Y96.860 E27.45415
G0 F9000 X87.254 Y97.153
G1 F1800 X84.647 Y94.546 E27.63809
G0 F9000 X84.647 Y95.112
G1 F1800 X87.006 Y97.471 E27.80453
G0 F9000 X86.776 Y97.807
G1 F1800 X84.647 Y95.677 E27.95478
G0 F9000 X84.647 Y96.243
G1 F1800 X86.591 Y98.188 E28.09197
G0 F9000 X86.429 Y98.591
G1 F1800 X84.647 Y96.809 E28.21770
G0 F9000 X84.647 Y97.374
G1 F1800 X86.295 Y99.023 E28.33401
G0 F9000 X86.223 Y99.516
G1 F1800 X84.647 Y97.940 E28.44521
G0 F9000 X84.647 Y98.506
G1 F1800 X86.189 Y100.049 E28.55404
G0 F9000 X86.238 Y100.663
G1 F1800 X84.647 Y99.072 E28.66629
G0 F9000 X84.647 Y99.637
G1 F1800 X86.433 Y101.424 E28.79234
G0 F9000 X87.066 Y102.623
G1 F1800 X84.647 Y100.203 E28.96305
G0 F9000 X84.647 Y100.769
G1 F1800 X95.837 Y111.959 E29.75256
G0 F9000 X96.175 Y111.731
G1 F1800 X87.884 Y103.440 E30.33754
G0 F9000 X89.125 Y104.116
G1 F1800 X96.457 Y111.448 E30.85485
G0 F9000 X96.459 Y110.884
G1 F1800 X89.876 Y104.301 E31.31932
G0 F9000 X90.504 Y104.363
G1 F1800 X96.459 Y110.319 E31.73951
G0 F9000 X96.459 Y109.753
G1 F1800 X91.037 Y104.330 E32.12210
G0 F9000 X91.518 Y104.245
G1 F1800 X96.459 Y109.187 E32.47074
G0 F9000 X96.459 Y108.622
G1 F1800 X91.962 Y104.124 E32.78807
G0 F9000 X92.369 Y103.965
G1 F1800 X96.459 Y108.056 E33.07667
G0 F9000 X96.459 Y107.490
G1 F1800 X92.736 Y103.767 E33.33935
G0 F9000 X93.084 Y103.550
G1 F1800 X96.459 Y106.925 E33.57748
G0 F9000 X96.459 Y106.359
G1 F1800 X93.400 Y103.299 E33.79334
G0 F9000 X93.687 Y103.021
G1 F1800 X96.459 Y105.793 E33.98892
G0 F9000 X96.459 Y105.228
G1 F1800 X93.958 Y102.727 E34.16538
G0 F9000 X94.190 Y102.392
G1 F1800 X96.459 Y104.662 E34.32551
G0 F9000 X96.459 Y104.096
G1 F1800 X94.403 Y102.040 E34.47057
G0 F9000 X94.587 Y101.658
G1 F1800 X96.459 Y103.531 E34.60268
G0 F9000 X96.459 Y102.965
G1 F1800 X94.735 Y101.240 E34.72435
G0 F9000 X94.839 Y100.778
G1 F1800 X96.459 Y102.399 E34.83869
G0 F9000 X96.459 Y101.833
G1 F1800 X94.905 Y100.279 E34.94833
G0 F9000 X94.898 Y99.707
G1 F1800 X96.459 Y101.268 E35.05847
G0 F9000 X96.459 Y100.702
G1 F1800 X94.814 Y99.057 E35.17453
G0 F9000 X94.513 Y98.190
G1 F1800 X96.459 Y100.136 E35.31183
G0 F9000 X92.374 Y103.813
G0 X90.225 Y104.212
G0 X88.172 Y103.490
G0 X86.745 Y101.831
G0 X84.647 Y101.334
G1 F1800 X95.271 Y111.959 E36.06145
G0 F9000 X94.705 Y111.959
G1 F1800 X84.647 Y101.900 E36.77113
G0 F9000 X84.647 Y102.466
G1 F1800 X94.139 Y111.959 E37.44088
G0 F9000 X93.574 Y111.959
G1 F1800 X84.647 Y103.031 E38.07076
G0 F9000 X84.647 Y103.597
G1 F1800 X93.008 Y111.959 E38.66071
G0 F9000 X92.442 Y111.959
G1 F1800 X84.647 Y104.163 E39.21073
G0 F9000 X84.647 Y104.728
G1 F1800 X91.877 Y111.959 E39.72088
G0 F9000 X91.311 Y111.959
G1 F1800 X84.647 Y105.294 E40.19109
G0 F9000 X84.647 Y105.860
G1 F1800 X90.745 Y111.959 E40.62138
G0 F9000 X90.180 Y111.959
G1 F1800 X84.647 Y106.425 E41.01179
G0 F9000 X84.647 Y106.991
G1 F1800 X89.614 Y111.959 E41.36228
G0 F9000 X89.048 Y111.959
G1 F1800 X84.647 Y107.557 E41.67283
G0 F9000 X84.647 Y108.122
G1 F1800 X88.483 Y111.959 E41.94351
G0 F9000 X87.917 Y111.959
G1 F1800 X84.647 Y108.688 E42.17426
G0 F9000 X84.647 Y109.254
G1 F1800 X87.351 Y111.959 E42.36508
G0 F9000 X86.786 Y111.959
G1 F1800 X84.647 Y109.820 E42.51600
G0 F9000 X84.647 Y110.385
G1 F1800 X86.220 Y111.959 E42.62702
G0 F9000 X85.654 Y111.959
G1 F1800 X84.647 Y110.951 E42.69810
G0 F9000 X94.219 Y102.102
G0 X96.459 Y99.571
G1 F1800 X85.043 Y88.155 E43.50356
G0 F9000 X85.494 Y88.039
G1 F1800 X96.459 Y99.005 E44.27724
G0 F9000 X96.459 Y98.439
G1 F1800 X86.059 Y88.039 E45.01102
G0 F9000 X86.625 Y88.039
G1 F1800 X96.459 Y97.874 E45.70489
G0 F9000 X96.459 Y97.308
G1 F1800 X87.191 Y88.039 E46.35883
G0 F9000 X87.756 Y88.039
G1 F1800 X96.459 Y96.742 E46.97288
G0 F9000 X96.459 Y96.177
G1 F1800 X88.322 Y88.039 E47.54702
G0 F9000 X88.888 Y88.039
G1 F1800 X96.459 Y95.611 E48.08123
G0 F9000 X96.459 Y95.045
G1 F1800 X89.453 Y88.039 E48.57554
G0 F9000 X90.019 Y88.039
G1 F1800 X96.459 Y94.480 E49.02996
G0 F9000 X96.459 Y93.914
G1 F1800 X90.585 Y88.039 E49.44443
G0 F9000 X91.151 Y88.039
G1 F1800 X96.459 Y93.348 E49.81898
G0 F9000 X96.459 Y92.783
G1 F1800 X91.716 Y88.039 E50.15366
G0 F9000 X92.282 Y88.039
G1 F1800 X96.459 Y92.217 E50.44840
G0 F9000 X96.459 Y91.651
G1 F1800 X92.848 Y88.039 E50.70321
G0 F9000 X93.413 Y88.039
G1 F1800 X96.459 Y91.085 E50.91812
G0 F9000 X96.459 Y90.520
G1 F1800 X93.979 Y88.039 E51.09314
G0 F9000 X94.545 Y88.039
G1 F1800 X96.459 Y89.954 E51.22822
G0 F9000 X96.459 Y89.388
G1 F1800 X95.110 Y88.039 E51.32340
G0 F9000 X95.676 Y88.039
G1 F1800 X96.459 Y88.823 E51.37868
G1 F2400 E47.37868
G0 F9000 X103.400 Y88.493
;TYPE:WALL-INNER
G1 F2400 E51.37868
G1 F1800 X103.993 Y87.900 E51.42051
G1 X114.896 Y87.900 E51.96447
G1 X115.492 Y88.494 E52.00645
G1 X115.492 Y111.504 E53.15442
G1 X114.921 Y112.076 E53.19474
G1 X114.898 Y112.100 E53.19640
G1 X103.994 Y112.100 E53.74041
G1 X103.400 Y111.506 E53.78232
G1 X103.400 Y88.493 E54.93044
G0 F9000 X107.614 Y96.190
G1 F1800 X107.067 Y96.506 E54.96195
G1 X106.573 Y96.898 E54.99342
G1 X106.143 Y97.361 E55.02494
G1 X105.786 Y97.884 E55.05653
G1 X105.516 Y98.445 E55.08759
G1 X105.406 Y98.765 E55.10448
G1 X105.321 Y99.080 E55.12075
G1 X105.234 Y99.672 E55.15061
G1 X105.220 Y100.020 E55.16798
G1 X105.264 Y100.617 E55.19785
G1 X105.330 Y100.961 E55.21532
G1 X105.510 Y101.543 E55.24572
G1 X105.784 Y102.112 E55.27722
G1 X106.140 Y102.634 E55.30875
G1 X106.570 Y103.097 E55.34027
G1 X107.056 Y103.485 E55.37130
G1 X107.344 Y103.665 E55.38824
G1 X107.625 Y103.812 E55.40406
G1 X107.925 Y103.941 E55.42035
G1 X108.504 Y104.120 E55.45059
G1 X109.117 Y104.212 E55.48151
G1 X109.456 Y104.226 E55.49844
G1 X110.063 Y104.181 E55.52881
G1 X110.677 Y104.043 E55.56020
G1 X111.266 Y103.814 E55.59173
G1 X111.815 Y103.500 E55.62329
G1 X112.310 Y103.107 E55.65482
G1 X112.733 Y102.654 E55.68574
G1 X112.943 Y102.372 E55.70328
G1 X113.242 Y101.854 E55.73312
G1 X113.383 Y101.535 E55.75052
G1 X113.560 Y100.962 E55.78044
G1 X113.626 Y100.618 E55.79792
G1 X113.668 Y100.061 E55.82578
G1 X113.673 Y100.002 E55.82874
G1 X113.627 Y99.381 E55.85980
G1 X113.489 Y98.767 E55.89120
G1 X113.260 Y98.178 E55.92273
G1 X112.945 Y97.628 E55.95435
G1 X112.559 Y97.142 E55.98531
G1 X112.107 Y96.717 E56.01627
G1 X111.548 Y96.334 E56.05007
G1 X111.011 Y96.075 E56.07982
G1 X110.421 Y95.889 E56.11068
G1 X110.066 Y95.819 E56.12873
G1 X109.498 Y95.777 E56.15715
G1 X109.409 Y95.774 E56.16159
G1 X108.816 Y95.819 E56.19126
G1 X108.201 Y95.960 E56.22274
G1 X107.614 Y96.190 E56.25419
G0 F9000 X107.788 Y96.551
;TYPE:WALL-OUTER
G1 F1800 X107.293 Y96.837 E56.28272
G1 X106.846 Y97.193 E56.31122
G1 X106.456 Y97.612 E56.33978
G1 X106.133 Y98.085 E56.36836
G1 X105.887 Y98.597 E56.39670
G1 X105.789 Y98.882 E56.41173
G1 X105.713 Y99.162 E56.42621
G1 X105.633 Y99.709 E56.45379
G1 X105.621 Y100.013 E56.46897
G1 X105.661 Y100.564 E56.49653
G1 X105.719 Y100.864 E56.51177
G1 X105.883 Y101.396 E56.53955
G1 X106.131 Y101.911 E56.56806
G1 X106.453 Y102.384 E56.59661
G1 X106.843 Y102.803 E56.62517
G1 X107.287 Y103.158 E56.65353
G1 X107.797 Y103.451 E56.68287
G1 X108.063 Y103.565 E56.69731
G1 X108.593 Y103.729 E56.72499
G1 X109.155 Y103.813 E56.75334
G1 X109.449 Y103.825 E56.76802
G1 X110.004 Y103.784 E56.79579
G1 X110.560 Y103.659 E56.82422
G1 X111.093 Y103.452 E56.85274
G1 X111.590 Y103.168 E56.88130
G1 X112.038 Y102.812 E56.90985
G1 X112.426 Y102.397 E56.93819
G1 X112.608 Y102.152 E56.95342
G1 X112.885 Y101.673 E56.98103
G1 X113.008 Y101.394 E56.99624
G1 X113.171 Y100.865 E57.02385
G1 X113.229 Y100.565 E57.03910
G1 X113.269 Y100.028 E57.06596
G1 X113.272 Y100.000 E57.06737
G1 X113.230 Y99.440 E57.09539
G1 X113.105 Y98.884 E57.12382
G1 X112.898 Y98.351 E57.15234
G1 X112.613 Y97.853 E57.18097
G1 X112.264 Y97.413 E57.20899
G1 X111.850 Y97.024 E57.23733
G1 X111.600 Y96.839 E57.25285
G1 X111.354 Y96.685 E57.26733
G1 X110.863 Y96.448 E57.29453
G1 X110.322 Y96.277 E57.32283
G1 X110.013 Y96.216 E57.33855
G1 X109.478 Y96.176 E57.36531
G1 X109.420 Y96.175 E57.36821
G1 X108.876 Y96.216 E57.39542
G1 X108.319 Y96.343 E57.42393
G1 X107.788 Y96.551 E57.45238
G0 F9000 X107.679 Y96.272
G0 X103.277 Y88.474
G0 X103.000 Y88.327
G1 F1800 X103.828 Y87.500 E57.51076
G1 X115.062 Y87.500 E58.07123
G1 X115.892 Y88.328 E58.12972
G1 X115.892 Y111.670 E59.29426
G1 X115.062 Y112.500 E59.35282
G1 X103.828 Y112.500 E59.91328
G1 X103.000 Y111.672 E59.97170
G1 X103.000 Y88.327 E61.13639
G0 F9000 X103.540 Y88.549
;TYPE:SKIN
G1 F1800 X110.875 Y95.885 E61.65395
G0 F9000 X110.109 Y95.684
G1 F1800 X103.539 Y89.114 E62.11750
G0 F9000 X103.539 Y89.680
G1 F1800 X109.495 Y95.636 E62.53773
G0 F9000 X108.960 Y95.667
G1 F1800 X103.539 Y90.245 E62.92024
G0 F9000 X103.539 Y90.811
G1 F1800 X108.479 Y95.751 E63.26879
G0 F9000 X108.036 Y95.873
G1 F1800 X103.539 Y91.377 E63.58604
G0 F9000 X103.539 Y91.942
G1 F1800 X107.629 Y96.032 E63.87461
G0 F9000 X107.261 Y96.230
G1 F1800 X103.539 Y92.508 E64.13722
G0 F9000 X103.539 Y93.074
G1 F1800 X106.913 Y96.447 E64.37524
G0 F9000 X106.597 Y96.698
G1 F1800 X103.539 Y93.640 E64.59099
G0 F9000 X103.539 Y94.205
G1 F1800 X106.309 Y96.976 E64.78647
G0 F9000 X106.037 Y97.268
G1 F1800 X103.539 Y94.771 E64.96268
G0 F9000 X103.539 Y95.337
G1 F1800 X105.807 Y97.604 E65.12266
G0 F9000 X105.595 Y97.958
G1 F1800 X103.539 Y95.902 E65.26773
G0 F9000 X103.539 Y96.468
G1 F1800 X105.411 Y98.340 E65.39981
G0 F9000 X105.263 Y98.758
G1 F1800 X103.539 Y97.034 E65.52144
G0 F9000 X103.539 Y97.599
G1 F1800 X105.158 Y99.219 E65.63571
G0 F9000 X105.092 Y99.718
G1 F1800 X103.539 Y98.165 E65.74528
G0 F9000 X103.539 Y98.731
G1 F1800 X105.099 Y100.291 E65.85535
G0 F9000 X105.183 Y100.940
G1 F1800 X103.539 Y99.296 E65.97134
G0 F9000 X103.539 Y99.862
G1 F1800 X105.477 Y101.800 E66.10808
G0 F9000 X103.539 Y101.559
