;Generated with Cura_SteamEngine 15.01
; Default start code
G28 ; Home extruder
G1 Z15 F100
M107 ; Turn off fan
G90 ; Absolute positioning
M82 ; Extruder in absolute mode
M190 S50
; Activate all used extruder
M104 T0 S210
G92 E0 ; Reset extruder position
; Wait for all used extruders to reach temperature
M109 T0 S210
;Layer count: 192
;LAYER:0
M107
G0 F9000 X89.755 Y86.758 Z0.300
;TYPE:SKIRT
G1 F1800 X91.555 Y84.953 E0.12718
G1 X92.814 Y83.700 E0.21579
G1 X107.188 Y83.700 E0.93292
G1 X110.244 Y86.753 E1.14843
G1 X110.244 Y113.244 E2.47007
G1 X107.191 Y116.300 E2.68558
G1 X92.808 Y116.300 E3.40315
G1 X89.755 Y113.244 E3.61866
G1 X89.755 Y86.758 E4.94005
G0 F9000 X90.155 Y86.923
G1 F1800 X91.838 Y85.236 E5.05894
G1 X92.979 Y84.100 E5.13927
G1 X107.022 Y84.100 E5.83988
G1 X109.844 Y86.919 E6.03888
G1 X109.844 Y113.078 E7.34396
G1 X107.025 Y115.900 E7.54296
G1 X92.974 Y115.900 E8.24396
G1 X90.155 Y113.078 E8.44297
G1 X90.155 Y86.923 E9.74784
G1 F2400 E5.74784
G0 F9000 X94.524 Y87.924
;TYPE:WALL-INNER
G1 F2400 E9.74784
G1 F1800 X94.547 Y87.900 E9.74950
G1 X105.450 Y87.900 E10.29346
G1 X106.044 Y88.493 E10.33533
G1 X106.044 Y111.506 E11.48345
G1 X105.451 Y112.100 E11.52533
G1 X94.548 Y112.100 E12.06928
G1 X93.955 Y111.506 E12.11116
G1 X93.955 Y88.495 E13.25918
G1 X94.524 Y87.924 E13.29940
G0 F9000 X98.555 Y96.064
G1 F1800 X98.476 Y96.074 E13.30337
G1 X98.264 Y96.146 E13.31454
G1 X97.164 Y96.897 E13.38099
G1 X97.031 Y96.994 E13.38920
G1 X96.596 Y97.498 E13.42242
G1 X96.257 Y98.040 E13.45431
G1 X95.984 Y98.698 E13.48985
G1 X95.807 Y99.501 E13.53087
G1 X95.774 Y100.030 E13.55732
G1 X95.849 Y100.791 E13.59547
G1 X96.259 Y101.975 E13.65798
G1 X96.928 Y102.878 E13.71405
G1 X97.021 Y103.002 E13.72178
G1 X98.285 Y103.864 E13.79811
G1 X99.201 Y104.138 E13.84581
G1 X100.194 Y104.214 E13.89549
G1 X100.302 Y104.205 E13.90090
G1 X101.311 Y104.000 E13.95227
G1 X101.426 Y103.966 E13.95825
G1 X102.229 Y103.590 E14.00249
G1 X102.991 Y102.985 E14.05103
G1 X103.738 Y101.976 E14.11366
G1 X104.112 Y100.906 E14.17021
G1 X104.150 Y100.784 E14.17659
G1 X104.225 Y100.031 E14.21434
G1 X104.192 Y99.502 E14.24078
G1 X104.048 Y98.790 E14.27703
G1 X103.740 Y98.039 E14.31752
G1 X103.418 Y97.524 E14.34782
G1 X103.051 Y97.091 E14.37614
G1 X102.971 Y96.997 E14.38230
G1 X102.140 Y96.380 E14.43394
G1 X102.073 Y96.323 E14.43833
G1 X101.931 Y96.244 E14.44643
G1 X101.187 Y95.951 E14.48633
G1 X101.083 Y95.915 E14.49182
G1 X100.338 Y95.802 E14.52941
G1 X100.155 Y95.782 E14.53859
G1 X98.555 Y96.064 E14.61965
G0 F9000 X98.623 Y96.458
;TYPE:WALL-OUTER
G1 F1800 X98.568 Y96.465 E14.62241
G1 X98.444 Y96.507 E14.62895
G1 X97.395 Y97.224 E14.69234
G1 X97.304 Y97.290 E14.69795
G1 X96.919 Y97.736 E14.72734
G1 X96.614 Y98.224 E14.75605
G1 X96.358 Y98.841 E14.78938
G1 X96.340 Y98.893 E14.79212
G1 X96.204 Y99.554 E14.82579
G1 X96.175 Y100.023 E14.84923
G1 X96.242 Y100.705 E14.88342
G1 X96.617 Y101.786 E14.94051
G1 X97.301 Y102.709 E14.99782
G1 X98.459 Y103.499 E15.06776
G1 X99.274 Y103.743 E15.11020
G1 X100.193 Y103.813 E15.15618
G1 X100.246 Y103.808 E15.15884
G1 X101.213 Y103.612 E15.20807
G1 X101.282 Y103.591 E15.21166
G1 X102.017 Y103.247 E15.25215
G1 X102.701 Y102.704 E15.29572
G1 X103.381 Y101.787 E15.35268
G1 X103.732 Y100.780 E15.40588
G1 X103.756 Y100.703 E15.40990
G1 X103.824 Y100.024 E15.44395
G1 X103.795 Y99.554 E15.46744
G1 X103.661 Y98.895 E15.50099
G1 X103.384 Y98.224 E15.53721
G1 X103.094 Y97.761 E15.56447
G1 X102.746 Y97.350 E15.59133
G1 X102.696 Y97.291 E15.59519
G1 X101.885 Y96.688 E15.64561
G1 X101.843 Y96.653 E15.64834
G1 X101.759 Y96.606 E15.65314
G1 X101.048 Y96.326 E15.69126
G1 X100.986 Y96.305 E15.69453
G1 X100.287 Y96.199 E15.72980
G1 X100.169 Y96.186 E15.73573
G1 X98.623 Y96.458 E15.81404
G0 F9000 X98.582 Y96.161
G0 X93.855 Y88.421
G0 X93.555 Y88.329
G1 F1800 X94.383 Y87.500 E15.87250
G1 X105.616 Y87.500 E16.43291
G1 X106.444 Y88.327 E16.49130
G1 X106.444 Y111.672 E17.65598
G1 X105.617 Y112.500 E17.71437
G1 X94.382 Y112.500 E18.27488
G1 X93.555 Y111.672 E18.33327
G1 X93.555 Y88.329 E19.49786
G0 F9000 X94.093 Y88.719
;TYPE:SKIN
G1 F1800 X101.172 Y95.798 E19.99732
G0 F9000 X100.491 Y95.682
G1 F1800 X94.093 Y89.285 E20.44870
G0 F9000 X94.093 Y89.851
G1 F1800 X99.922 Y95.680 E20.85996
G0 F9000 X99.441 Y95.764
G1 F1800 X94.093 Y90.417 E21.23726
G0 F9000 X94.093 Y90.982
G1 F1800 X98.961 Y95.849 E21.58069
G0 F9000 X98.477 Y95.931
G1 F1800 X94.093 Y91.548 E21.88997
G0 F9000 X94.093 Y92.114
G1 F1800 X98.080 Y96.100 E22.17124
G0 F9000 X97.744 Y96.330
G1 F1800 X94.093 Y92.679 E22.42883
G0 F9000 X94.093 Y93.245
G1 F1800 X97.408 Y96.560 E22.66272
G0 F9000 X97.073 Y96.790
G1 F1800 X94.093 Y93.811 E22.87294
G0 F9000 X94.093 Y94.376
G1 F1800 X96.783 Y97.065 E23.06270
G0 F9000 X96.521 Y97.370
G1 F1800 X94.093 Y94.942 E23.23401
G0 F9000 X94.093 Y95.508
G1 F1800 X96.297 Y97.711 E23.38948
G0 F9000 X96.091 Y98.071
G1 F1800 X94.093 Y96.073 E23.53045
G0 F9000 X94.093 Y96.639
G1 F1800 X95.926 Y98.471 E23.65974
G0 F9000 X95.795 Y98.906
G1 F1800 X94.093 Y97.205 E23.77979
G0 F9000 X94.093 Y97.770
G1 F1800 X95.693 Y99.370 E23.89268
G0 F9000 X95.642 Y99.885
G1 F1800 X94.093 Y98.336 E24.00197
G0 F9000 X94.093 Y98.902
G1 F1800 X95.678 Y100.486 E24.11377
G0 F9000 X95.851 Y101.225
G1 F1800 X94.093 Y99.468 E24.23777
G0 F9000 X98.559 Y96.064
G0 X101.083 Y95.916
G0 X102.137 Y96.197
G1 F1800 X94.292 Y88.352 E24.79127
G0 F9000 X94.575 Y88.070
G1 F1800 X105.904 Y99.398 E25.59056
G0 F9000 X105.904 Y98.833
G1 F1800 X95.111 Y88.040 E26.35207
G0 F9000 X95.677 Y88.040
G1 F1800 X105.904 Y98.267 E27.07364
G0 F9000 X105.904 Y97.701
G1 F1800 X96.242 Y88.040 E27.75531
G0 F9000 X96.808 Y88.040
G1 F1800 X105.904 Y97.135 E28.39704
G0 F9000 X105.904 Y96.570
G1 F1800 X97.374 Y88.040 E28.99888
G0 F9000 X97.939 Y88.040
G1 F1800 X105.904 Y96.004 E29.56082
G0 F9000 X105.904 Y95.438
G1 F1800 X98.505 Y88.040 E30.08282
G0 F9000 X99.071 Y88.040
G1 F1800 X105.904 Y94.873 E30.56493
G0 F9000 X105.904 Y94.307
G1 F1800 X99.637 Y88.040 E31.00710
G0 F9000 X100.202 Y88.040
G1 F1800 X105.904 Y93.741 E31.40937
G0 F9000 X105.904 Y93.176
G1 F1800 X100.768 Y88.040 E31.77174
G0 F9000 X101.334 Y88.040
G1 F1800 X105.904 Y92.610 E32.09418
G0 F9000 X105.904 Y92.044
G1 F1800 X101.899 Y88.040 E32.37672
G0 F9000 X102.465 Y88.040
G1 F1800 X105.904 Y91.479 E32.61936
G0 F9000 X105.904 Y90.913
G1 F1800 X103.031 Y88.040 E32.82207
G0 F9000 X103.596 Y88.040
G1 F1800 X105.904 Y90.347 E32.98487
G0 F9000 X105.904 Y89.782
G1 F1800 X104.162 Y88.040 E33.10778
G0 F9000 X104.728 Y88.040
G1 F1800 X105.904 Y89.216 E33.19075
G0 F9000 X105.904 Y88.650
G1 F1800 X105.293 Y88.040 E33.23383
G0 F9000 X103.782 Y97.842
G1 F1800 X105.904 Y99.964 E33.38355
G0 F9000 X105.904 Y100.530
G1 F1800 X104.195 Y98.821 E33.50413
G0 F9000 X104.333 Y99.525
G1 F1800 X105.904 Y101.095 E33.61493
G0 F9000 X105.904 Y101.661
G1 F1800 X104.356 Y100.113 E33.72415
G0 F9000 X104.305 Y100.628
G1 F1800 X105.904 Y102.227 E33.83697
G0 F9000 X105.904 Y102.792
G1 F1800 X104.196 Y101.085 E33.95744
G0 F9000 X104.050 Y101.504
G1 F1800 X105.904 Y103.358 E34.08825
G0 F9000 X105.904 Y103.924
G1 F1800 X103.903 Y101.923 E34.22944
G0 F9000 X103.690 Y102.275
G1 F1800 X105.904 Y104.489 E34.38565
G0 F9000 X105.904 Y105.055
G1 F1800 X103.449 Y102.600 E34.55886
G0 F9000 X103.207 Y102.925
G1 F1800 X105.904 Y105.621 E34.74911
G0 F9000 X105.904 Y106.186
G1 F1800 X102.929 Y103.212 E34.95898
G0 F9000 X102.614 Y103.463
G1 F1800 X105.904 Y106.752 E35.19107
G0 F9000 X105.904 Y107.318
G1 F1800 X102.298 Y103.712 E35.44549
G0 F9000 X101.913 Y103.893
G1 F1800 X105.904 Y107.883 E35.72704
G0 F9000 X105.904 Y108.449
G1 F1800 X101.527 Y104.073 E36.03583
G0 F9000 X101.077 Y104.188
G1 F1800 X105.904 Y109.015 E36.37640
G0 F9000 X105.904 Y109.581
G1 F1800 X100.607 Y104.284 E36.75013
G0 F9000 X100.105 Y104.347
G1 F1800 X105.904 Y110.146 E37.15928
G0 F9000 X105.904 Y110.712
G1 F1800 X99.492 Y104.300 E37.61169
G0 F9000 X98.786 Y104.160
G1 F1800 X105.904 Y111.278 E38.11390
G0 F9000 X105.706 Y111.645
G1 F1800 X97.681 Y103.620 E38.68011
G0 F9000 X96.228 Y102.167
G1 F1800 X94.093 Y100.033 E38.83071
G0 F9000 X94.093 Y100.599
G1 F1800 X105.423 Y111.928 E39.63006
G0 F9000 X104.887 Y111.959
G1 F1800 X94.093 Y101.165 E40.39164
G0 F9000 X94.093 Y101.730
G1 F1800 X104.322 Y111.959 E41.11335
G0 F9000 X103.756 Y111.959
G1 F1800 X94.093 Y102.296 E41.79513
G0 F9000 X94.093 Y102.862
G1 F1800 X103.190 Y111.959 E42.43697
G0 F9000 X102.625 Y111.959
G1 F1800 X94.093 Y103.427 E43.03895
G0 F9000 X94.093 Y103.993
G1 F1800 X102.059 Y111.959 E43.60099
G0 F9000 X101.493 Y111.959
G1 F1800 X94.093 Y104.559 E44.12310
G0 F9000 X94.093 Y105.124
G1 F1800 X100.928 Y111.959 E44.60535
G0 F9000 X100.362 Y111.959
G1 F1800 X94.093 Y105.690 E45.04766
G0 F9000 X94.093 Y106.256
G1 F1800 X99.796 Y111.959 E45.45004
G0 F9000 X99.231 Y111.959
G1 F1800 X94.093 Y106.821 E45.81255
G0 F9000 X94.093 Y107.387
G1 F1800 X98.665 Y111.959 E46.13513
G0 F9000 X98.099 Y111.959
G1 F1800 X94.093 Y107.953 E46.41778
G0 F9000 X94.093 Y108.518
G1 F1800 X97.534 Y111.959 E46.66056
G0 F9000 X96.968 Y111.959
G1 F1800 X94.093 Y109.084 E46.86340
G0 F9000 X94.093 Y109.650
G1 F1800 X96.402 Y111.959 E47.02632
G0 F9000 X95.837 Y111.959
G1 F1800 X94.093 Y110.216 E47.14933
G0 F9000 X94.093 Y110.781
G1 F1800 X95.271 Y111.959 E47.23244
G0 F9000 X94.705 Y111.959
G1 F1800 X94.093 Y111.347 E47.27562
;LAYER:1
M106 S63
G0 F9000 X93.755 Y111.589 Z0.500
;TYPE:WALL-INNER
G1 F2220 X93.755 Y88.411 E48.04653
G1 X94.240 Y87.925 E48.06936
G1 X94.466 Y87.700 E48.07997
G1 X105.533 Y87.700 E48.44806
G1 X106.244 Y88.410 E48.48148
G1 X106.244 Y111.588 E49.25238
G1 X105.533 Y112.300 E49.28585
G1 X94.465 Y112.300 E49.65397
G1 X93.755 Y111.589 E49.68739
G0 F9000 X98.278 Y103.862
G1 F2220 X99.146 Y104.123 E49.71754
G1 X99.270 Y104.149 E49.72175
G1 X100.187 Y104.215 E49.75233
G1 X100.317 Y104.204 E49.75667
G1 X101.285 Y104.008 E49.78952
G1 X101.445 Y103.957 E49.79511
G1 X102.213 Y103.599 E49.82329
G1 X102.986 Y102.990 E49.85602
G1 X103.738 Y101.975 E49.89803
G1 X104.096 Y100.950 E49.93414
G1 X104.151 Y100.773 E49.94031
G1 X104.223 Y100.053 E49.96438
G1 X104.191 Y99.490 E49.98313
G1 X104.049 Y98.789 E50.00692
G1 X103.746 Y98.053 E50.03339
G1 X103.409 Y97.504 E50.05482
G1 X102.968 Y96.994 E50.07724
G1 X102.207 Y96.430 E50.10875
G1 X102.108 Y96.346 E50.11307
G1 X101.911 Y96.234 E50.12060
G1 X101.226 Y95.965 E50.14508
G1 X101.081 Y95.915 E50.15018
G1 X100.397 Y95.811 E50.17319
G1 X100.130 Y95.781 E50.18213
G1 X98.668 Y96.038 E50.23150
G1 X98.539 Y96.054 E50.23583
G1 X98.245 Y96.156 E50.24618
G1 X97.235 Y96.844 E50.28682
G1 X97.033 Y96.991 E50.29513
G1 X96.590 Y97.505 E50.31770
G1 X96.252 Y98.052 E50.33909
G1 X95.977 Y98.715 E50.36296
G1 X95.809 Y99.485 E50.38917
G1 X95.776 Y100.051 E50.40803
G1 X95.848 Y100.781 E50.43243
G1 X96.259 Y101.974 E50.47440
G1 X96.901 Y102.840 E50.51025
G1 X97.027 Y103.007 E50.51721
G1 X98.278 Y103.862 E50.56761
G0 F9000 X98.453 Y103.497
;TYPE:WALL-OUTER
G1 F1980 X99.244 Y103.735 E50.59508
G1 X100.185 Y103.814 E50.62649
G1 X100.261 Y103.807 E50.62903
G1 X101.185 Y103.620 E50.66038
G1 X101.300 Y103.584 E50.66439
G1 X102.002 Y103.256 E50.69016
G1 X102.697 Y102.709 E50.71958
G1 X103.381 Y101.786 E50.75779
G1 X103.716 Y100.825 E50.79164
G1 X103.757 Y100.693 E50.79623
G1 X103.822 Y100.044 E50.81793
G1 X103.793 Y99.541 E50.83469
G1 X103.664 Y98.906 E50.85624
G1 X103.389 Y98.235 E50.88036
G1 X103.085 Y97.741 E50.89965
G1 X102.694 Y97.289 E50.91953
G1 X101.953 Y96.738 E50.95024
G1 X101.878 Y96.675 E50.95350
G1 X101.738 Y96.596 E50.95884
G1 X101.087 Y96.340 E50.98211
G1 X100.985 Y96.305 E50.98570
G1 X100.345 Y96.208 E51.00723
G1 X100.143 Y96.185 E51.01399
G1 X98.728 Y96.434 E51.06177
G1 X98.630 Y96.446 E51.06506
G1 X98.426 Y96.517 E51.07224
G1 X97.466 Y97.171 E51.11088
G1 X97.306 Y97.288 E51.11747
G1 X96.913 Y97.742 E51.13744
G1 X96.609 Y98.235 E51.15671
G1 X96.360 Y98.835 E51.17831
G1 X96.206 Y99.540 E51.20231
G1 X96.177 Y100.043 E51.21907
G1 X96.241 Y100.695 E51.24086
G1 X96.617 Y101.785 E51.27921
G1 X97.221 Y102.601 E51.31298
G1 X97.306 Y102.714 E51.31768
G1 X98.453 Y103.497 E51.36387
G0 F9000 X98.366 Y103.782
G0 X93.655 Y111.661
G0 X93.355 Y111.755
G1 F1980 X93.355 Y88.246 E52.14578
G1 X94.300 Y87.300 E52.19026
G1 X105.699 Y87.300 E52.56939
G1 X106.644 Y88.244 E52.61382
G1 X106.644 Y111.754 E53.39576
G1 X105.699 Y112.700 E53.44024
G1 X94.299 Y112.700 E53.81940
G1 X93.355 Y111.755 E53.86383
G0 F9000 X93.995 Y111.630
;TYPE:SKIN
G1 F1980 X101.575 Y104.051 E54.22034
G0 F9000 X100.816 Y104.244
G1 F1980 X93.895 Y111.165 E54.54589
G0 F9000 X93.895 Y110.599
G1 F1980 X100.143 Y104.351 E54.83977
G0 F9000 X102.211 Y103.598
G0 X102.985 Y102.988
G0 X104.011 Y101.615
G1 F1980 X106.103 Y99.523 E54.93817
G0 F9000 X106.103 Y98.957
G1 F1980 X104.290 Y100.770 E55.02345
G0 F9000 X104.354 Y100.140
G1 F1980 X106.103 Y98.391 E55.10572
G0 F9000 X106.103 Y97.826
G1 F1980 X104.337 Y99.591 E55.18876
G0 F9000 X104.256 Y99.107
G1 F1980 X106.103 Y97.260 E55.27564
G0 F9000 X106.103 Y96.694
G1 F1980 X104.144 Y98.653 E55.36779
G0 F9000 X103.980 Y98.252
G1 F1980 X106.103 Y96.129 E55.46765
G0 F9000 X106.103 Y95.563
G1 F1980 X103.797 Y97.869 E55.57611
G0 F9000 X103.582 Y97.518
G1 F1980 X106.103 Y94.997 E55.69469
G0 F9000 X106.103 Y94.431
G1 F1980 X103.333 Y97.201 E55.82499
G0 F9000 X103.072 Y96.897
G1 F1980 X106.103 Y93.866 E55.96755
G0 F9000 X106.103 Y93.300
G1 F1980 X102.747 Y96.656 E56.12541
G0 F9000 X102.422 Y96.416
G1 F1980 X106.103 Y92.734 E56.29858
G0 F9000 X106.103 Y92.169
G1 F1980 X102.094 Y96.178 E56.48715
G0 F9000 X101.703 Y96.003
G1 F1980 X106.103 Y91.603 E56.69411
G0 F9000 X106.103 Y91.037
G1 F1980 X101.297 Y95.843 E56.92017
G0 F9000 X100.839 Y95.736
G1 F1980 X106.103 Y90.472 E57.16777
G0 F9000 X106.103 Y89.906
G1 F1980 X100.344 Y95.665 E57.43866
G0 F9000 X99.735 Y95.708
G1 F1980 X106.103 Y89.340 E57.73819
G0 F9000 X106.103 Y88.775
G1 F1980 X99.050 Y95.828 E58.06994
G0 F9000 X98.336 Y95.976
G1 F1980 X105.974 Y88.338 E58.42921
G0 F9000 X105.691 Y88.056
G1 F1980 X93.894 Y99.852 E58.98408
G0 F9000 X93.895 Y100.417
G1 F1980 X95.984 Y98.328 E59.08234
G0 F9000 X95.740 Y99.137
G1 F1980 X93.895 Y100.983 E59.16915
G0 F9000 X93.895 Y101.549
G1 F1980 X95.649 Y99.794 E59.25167
G0 F9000 X93.894 Y99.286
G1 F1980 X105.341 Y87.839 E59.79010
G0 F9000 X104.776 Y87.839
G1 F1980 X93.894 Y98.721 E60.30196
G0 F9000 X93.894 Y98.155
G1 F1980 X104.210 Y87.839 E60.78719
G0 F9000 X103.644 Y87.839
G1 F1980 X93.894 Y97.589 E61.24580
G0 F9000 X93.894 Y97.024
G1 F1980 X103.079 Y87.839 E61.67784
G0 F9000 X102.513 Y87.839
G1 F1980 X93.894 Y96.458 E62.08325
G0 F9000 X93.894 Y95.892
G1 F1980 X101.947 Y87.839 E62.46204
G0 F9000 X101.382 Y87.839
G1 F1980 X93.894 Y95.327 E62.81425
G0 F9000 X93.894 Y94.761
G1 F1980 X100.816 Y87.839 E63.13984
G0 F9000 X100.250 Y87.839
G1 F1980 X93.894 Y94.195 E63.43881
G0 F9000 X93.894 Y93.630
G1 F1980 X99.685 Y87.839 E63.71120
G0 F9000 X99.119 Y87.839
G1 F1980 X93.894 Y93.064 E63.95697
G0 F9000 X93.894 Y92.498
G1 F1980 X98.553 Y87.839 E64.17611
G0 F9000 X97.988 Y87.839
G1 F1980 X93.894 Y91.933 E64.36868
G0 F9000 X93.894 Y91.367
G1 F1980 X97.422 Y87.839 E64.53463
G0 F9000 X96.856 Y87.839
G1 F1980 X93.894 Y90.801 E64.67395
G0 F9000 X93.894 Y90.236
G1 F1980 X96.290 Y87.839 E64.78667
G0 F9000 X95.725 Y87.839
G1 F1980 X93.894 Y89.670 E64.87280
G0 F9000 X93.894 Y89.104
G1 F1980 X95.159 Y87.839 E64.93230
G0 F9000 X94.593 Y87.839
G1 F1980 X93.894 Y88.538 E64.96518
G0 F9000 X95.663 Y100.346
G1 F1980 X93.895 Y102.114 E65.04834
G0 F9000 X93.895 Y102.680
G1 F1980 X95.723 Y100.851 E65.13435
